X:142
T:Pwt ar y Bys - Buttered Peas
M:2/4
L:1/8
Q:220
C:Trad.
R:Processional
K:D
FA AF | GB BG | FA AF | GF ED | FA AF | GB BG | FA E/
F/G/E/ | FD D2 :||: DF Ad | d/c/B/c/ dB | AF FD | GE E2
| DF Ad | d/c/B/c/ dB | AF GE | FD D2 :||
